dist/img/svg/youtube.svg

<svg width="18" height="14" viewBox="0 0 18 14" fill="none" xmlns="http://www.w3.org/2000/svg">
<path d="M17.895 3.48828C17.9653 4.75391 18.0005 6.00781 18.0005 7.25C18.0005 8.49219 17.9653 9.74609 17.895 11.0117C17.895 11.8086 17.6372 12.4883 17.1216 13.0508C16.6294 13.5898 16.02 13.8594 15.2935 13.8594C13.4888 13.9531 11.3911 14 9.00049 14C6.60986 14 4.51221 13.9531 2.70752 13.8594C1.98096 13.8594 1.35986 13.5898 0.844238 13.0508C0.352051 12.4883 0.105957 11.8086 0.105957 11.0117C0.0356445 9.74609 0.000488281 8.49219 0.000488281 7.25C0.000488281 6.42969 0.0473633 5.17578 0.141113 3.48828C0.141113 2.69141 0.387207 2.02344 0.879395 1.48438C1.37158 0.921875 1.98096 0.640625 2.70752 0.640625C4.41846 0.546875 6.41064 0.5 8.68408 0.5H9.00049H9.31689C11.5903 0.5 13.5825 0.546875 15.2935 0.640625C16.02 0.640625 16.6294 0.921875 17.1216 1.48438C17.6372 2.02344 17.895 2.69141 17.895 3.48828ZM7.27783 10.6953L12.3755 7.25L7.27783 3.76953V10.6953Z"/>
</svg>

<svg width="18" height="14" fill="none" xmlns="http://www.w3.org/2000/svg"><path d="M17.895 3.488a67.82 67.82 0 010 7.524c0 .797-.258 1.476-.773 2.039a2.376 2.376 0 01-1.829.808C13.49 13.953 11.392 14 9 14c-2.39 0-4.488-.047-6.292-.14-.727 0-1.348-.27-1.864-.81-.492-.562-.738-1.241-.738-2.038A67.807 67.807 0 010 7.25c0-.82.047-2.074.141-3.762 0-.797.246-1.465.738-2.004C1.372.922 1.981.641 2.708.641 4.418.547 6.41.5 8.684.5h.633c2.273 0 4.265.047 5.976.14.727 0 1.336.282 1.829.844.515.54.773 1.207.773 2.004zM7.278 10.695l5.098-3.445-5.098-3.48v6.925z"/></svg>
